src/assets/svg/swap.svg

<svg width="25" height="24" viewBox="0 0 25 24" fill="none" xmlns="http://www.w3.org/2000/svg">
<path d="M0.20595 18.4607L5.625 23.7448C5.89963 24.0139 6.34476 24.0139 6.61939 23.7448L7.03365 23.3387C7.30828 23.0696 7.30828 22.6332 7.03365 22.364L3.46259 18.8923H19.2969C19.6852 18.8923 20 18.5837 20 18.2031C20 17.8225 20 17.7436 20 17.7436C20 17.363 19.6852 17.0544 19.2969 17.0544C18.9086 17.0544 3.4633 17.0544 3.4633 17.0544L7.03365 13.5827C7.30828 13.3136 7.30828 12.8772 7.03365 12.608L6.61933 12.2019C6.34476 11.9327 5.89957 11.9327 5.625 12.2019L0.20595 17.486C-0.0686207 17.7551 -0.0686792 18.1915 0.20595 18.4607Z" fill="#BDCBDA"/>
<path d="M24.7941 6.46066L19.375 11.7448C19.1004 12.0139 18.6552 12.0139 18.3807 11.7448L17.9664 11.3387C17.6917 11.0695 17.6917 10.6331 17.9664 10.3639L21.5367 6.89229H5.70312C5.31482 6.89229 5 6.58368 5 6.20306V5.74357C5 5.36294 5.31482 5.05434 5.70312 5.05434H21.5374L17.9664 1.58268C17.6917 1.31353 17.6917 0.877133 17.9664 0.607931L18.3806 0.201859C18.6552 -0.0672862 19.1004 -0.0672862 19.375 0.201859L24.7941 5.48597C25.0687 5.75511 25.0686 6.19151 24.7941 6.46066Z" fill="#BDCBDA"/>
</svg>

<?xml version="1.0" encoding="utf-8"?>
<!-- Generator: Adobe Illustrator 25.0.1, SVG Export Plug-In . SVG Version: 6.00 Build 0)  -->
<svg version="1.1" id="Ebene_1" xmlns="http://www.w3.org/2000/svg" xmlns:xlink="http://www.w3.org/1999/xlink" x="0px" y="0px"
	 viewBox="0 0 25 24" style="enable-background:new 0 0 25 24;" xml:space="preserve">
<style type="text/css">
	.st0{fill:#FFFFFF;}
</style>
<path class="st0" d="M0.2,18.5l5.4,5.3c0.3,0.3,0.7,0.3,1,0L7,23.3c0.3-0.3,0.3-0.7,0-1l-3.6-3.5h15.8c0.4,0,0.7-0.3,0.7-0.7
	s0-0.5,0-0.5c0-0.4-0.3-0.7-0.7-0.7s-15.8,0-15.8,0L7,13.6c0.3-0.3,0.3-0.7,0-1l-0.4-0.4c-0.3-0.3-0.7-0.3-1,0l-5.4,5.3
	C-0.1,17.8-0.1,18.2,0.2,18.5z"/>
<path class="st0" d="M24.8,6.5l-5.4,5.3c-0.3,0.3-0.7,0.3-1,0L18,11.3c-0.3-0.3-0.3-0.7,0-1l3.6-3.5H5.7C5.3,6.9,5,6.6,5,6.2V5.7
	c0-0.4,0.3-0.7,0.7-0.7h15.8L18,1.6c-0.3-0.3-0.3-0.7,0-1l0.4-0.4c0.3-0.3,0.7-0.3,1,0l5.4,5.3C25.1,5.8,25.1,6.2,24.8,6.5z"/>
</svg>
